client/public/images/user-menu.svg

<svg height="18" viewBox="0 0 4 18" width="4" xmlns="http://www.w3.org/2000/svg"><path d="m2 4c1.1045695 0 2-.8954305 2-2s-.8954305-2-2-2-2 .8954305-2 2 .8954305 2 2 2zm0 10c-1.1045695 0-2 .8954305-2 2s.8954305 2 2 2 2-.8954305 2-2-.8954305-2-2-2zm0-7c-1.1045695 0-2 .8954305-2 2s.8954305 2 2 2 2-.8954305 2-2-.8954305-2-2-2z" fill="#3a55d8"/></svg>

<?xml version="1.0" encoding="UTF-8"?>
<svg width="4px" height="18px" viewBox="0 0 4 18" version="1.1" xmlns="http://www.w3.org/2000/svg" xmlns:xlink="http://www.w3.org/1999/xlink">
    <title>user-menu</title>
    <g id="Page-1" stroke="none" stroke-width="1" fill="none" fill-rule="evenodd">
        <g id="Home" transform="translate(-20.000000, -101.000000)" fill="#3A55D8" fill-rule="nonzero">
            <g id="Group-13" transform="translate(-3.000000, 94.000000)">
                <g id="user-menu" transform="translate(23.000000, 7.000000)">
                    <path d="M2,4 C3.1045695,4 4,3.1045695 4,2 C4,0.8954305 3.1045695,0 2,0 C0.8954305,0 0,0.8954305 0,2 C0,3.1045695 0.8954305,4 2,4 Z M2,14 C0.8954305,14 0,14.8954305 0,16 C0,17.1045695 0.8954305,18 2,18 C3.1045695,18 4,17.1045695 4,16 C4,14.8954305 3.1045695,14 2,14 Z M2,7 C0.8954305,7 0,7.8954305 0,9 C0,10.1045695 0.8954305,11 2,11 C3.1045695,11 4,10.1045695 4,9 C4,7.8954305 3.1045695,7 2,7 Z" id="Shape"></path>
                </g>
            </g>
        </g>
    </g>
</svg>
